X: 1
T: the Witches
C: Joseph Lowe [19th C]
R: reel
Z: 2020 John Chambers <jc:trillian.mit.edu>
B: Jerry Holland's first collection, p.51
M: C|
L: 1/8
K: Edor
F |\
"Em"EBBG "D"TFDDF | "Em"EBBF GABc |\
"D"dBAd TFDAF | "Em"EB"D"AF "Em"GEE2 :|
[|\
"Em"(gf)eg Bgeg | "D"fdad "G"bd"D"ad |\
"Em"(gf)eg Bgeg | "D"fdaf "Em"Tgeef ||
||\
"Em"(gf)eg Bgeg | "D"fdad "Bm"bdad |\
"Em"(gf)ef "G"deBd | "D"AdFA "Em"BEE |]
